!!!COM: joe-satriani
!!!OTL: if-i-could-fly
!!!RNB: hooktheoryid: NLAgQjklxyO
**kern	**text
*clefG2	*
*k[f#c#]	*
*M4/4	*
=1	=1
2.f#	Emin7
8g	.
[8e	.
=2	=2
2..e]	A
8d	.
=3	=3
4e	Dmaj7
8e	.
8d	.
4e	.
8e	.
8d	.
=4	=4
8.e	Bm
8.f#	.
4d	.
8B	.
4r	.
=5	=5
[2f#	Emin7
8f#]	.
4g	.
[8e	.
=6	=6
2.e]	A
8e	.
8d	.
=7	=7
8a	Dmaj7
4f#	.
4.d	.
8B	.
[8c#	.
=8	=8
8c#]	Bm
[2d	.
8d]	.
4r	.
*-	*-